symbolic/24x24/apps/golly.svg

<svg xmlns="http://www.w3.org/2000/svg" width="24" height="24" version="1"><rect style="fill:#fadd00" width="20" height="20" x="2" y="2" rx="1" ry="1"/><path style="opacity:.2;fill:#fff" d="M2 3.5V3c0-.554.446-1 1-1h18c.554 0 1 .446 1 1v.5c0-.554-.446-1-1-1H3c-.554 0-1 .446-1 1z"/><path style="opacity:.2" d="M2 21v.5c0 .554.446 1 1 1h18c.554 0 1-.446 1-1V21c0 .554-.446 1-1 1H3c-.554 0-1-.446-1-1z"/><path style="opacity:.1" d="M4 4.5v1h1v-1zm2 0v1h1v-1zm2 0v1h1v-1zm2 0v1h1v-1zm2 0v1h1v-1zm2 0v1h1v-1zm3 0v1h1v-1zm2 0v1h1v-1zm-15 2v1h1v-1zm2 0v1h1v-1zm2 0v1h1v-1zm2 0v1h1v-1zm2 0v1h1v-1zm2 0v1h1v-1zm3 0v1h1v-1zm2 0v1h1v-1zm-2 2v1h1v-1zm2 0v1h1v-1zm-15 1v1h1v-1zm2 0v1h1v-1zm11 1v1h1v-1zm2 0v1h1v-1zm-15 1v1h1v-1zm2 0v1h1v-1zm11 1v1h1v-1zm2 0v1h1v-1zm-15 1v1h1v-1zm2 0v1h1v-1zm11 1v1h1v-1zm2 0v1h1v-1zm-15 1v1h1v-1zm2 0v1h1v-1zm-2 2v1h1v-1zm2 0v1h1v-1zm3 0v1h1v-1zm2 0v1h1v-1zm2 0v1h1v-1zm2 0v1h1v-1zm2 0v1h1v-1zm2 0v1h1v-1zm-15 2v1h1v-1zm2 0v1h1v-1zm3 0v1h1v-1zm2 0v1h1v-1zm2 0v1h1v-1zm2 0v1h1v-1zm2 0v1h1v-1zm2 0v1h1v-1z"/><path style="fill:#234fa7" d="M4 4v1h1V4H4zm2 0v1h1V4H6zm2 0v1h1V4H8zm2 0v1h1V4h-1zm2 0v1h1V4h-1zm2 0v1h1V4h-1zm3 0v1h1V4h-1zm2 0v1h1V4h-1zM4 6v1h1V6H4zm2 0v1h1V6H6zm2 0v1h1V6H8zm2 0v1h1V6h-1zm2 0v1h1V6h-1zm2 0v1h1V6h-1zm3 0v1h1V6h-1zm2 0v1h1V6h-1zm-2 2v1h1V8h-1zm2 0v1h1V8h-1zM4 9v1h1V9H4zm2 0v1h1V9H6zm11 1v1h1v-1h-1zm2 0v1h1v-1h-1zM4 11v1h1v-1H4zm2 0v1h1v-1H6zm11 1v1h1v-1h-1zm2 0v1h1v-1h-1zM4 13v1h1v-1H4zm2 0v1h1v-1H6zm11 1v1h1v-1h-1zm2 0v1h1v-1h-1zM4 15v1h1v-1H4zm2 0v1h1v-1H6zm-2 2v1h1v-1H4zm2 0v1h1v-1H6zm3 0v1h1v-1H9zm2 0v1h1v-1h-1zm2 0v1h1v-1h-1zm2 0v1h1v-1h-1zm2 0v1h1v-1h-1zm2 0v1h1v-1h-1zM4 19v1h1v-1H4zm2 0v1h1v-1H6zm3 0v1h1v-1H9zm2 0v1h1v-1h-1zm2 0v1h1v-1h-1zm2 0v1h1v-1h-1zm2 0v1h1v-1h-1zm2 0v1h1v-1h-1z"/></svg>

<svg xmlns="http://www.w3.org/2000/svg" width="24" height="24" version="1">
 <rect style="fill:#fadd00" width="20" height="20" x="2" y="2" rx="1" ry="1"/>
 <path style="opacity:0.2;fill:#ffffff" d="M 2,3.5 V 3 C 2,2.446 2.446,2 3,2 h 18 c 0.554,0 1,0.446 1,1 v 0.5 c 0,-0.554 -0.446,-1 -1,-1 H 3 c -0.554,0 -1,0.446 -1,1 z"/>
 <path style="opacity:0.2" d="m 2,21 v 0.5 c 0,0.554 0.446,1 1,1 h 18 c 0.554,0 1,-0.446 1,-1 V 21 c 0,0.554 -0.446,1 -1,1 H 3 C 2.446,22 2,21.554 2,21 Z"/>
 <path style="opacity:0.1" d="m 4,4.5 v 1 h 1 v -1 z m 2,0 v 1 h 1 v -1 z m 2,0 v 1 h 1 v -1 z m 2,0 v 1 h 1 v -1 z m 2,0 v 1 h 1 v -1 z m 2,0 v 1 h 1 v -1 z m 3,0 v 1 h 1 v -1 z m 2,0 v 1 h 1 v -1 z m -15,2 v 1 h 1 v -1 z m 2,0 v 1 h 1 v -1 z m 2,0 v 1 h 1 v -1 z m 2,0 v 1 h 1 v -1 z m 2,0 v 1 h 1 v -1 z m 2,0 v 1 h 1 v -1 z m 3,0 v 1 h 1 v -1 z m 2,0 v 1 h 1 v -1 z m -2,2 v 1 h 1 v -1 z m 2,0 v 1 h 1 v -1 z m -15,1 v 1 h 1 v -1 z m 2,0 v 1 h 1 v -1 z m 11,1 v 1 h 1 v -1 z m 2,0 v 1 h 1 v -1 z m -15,1 v 1 h 1 v -1 z m 2,0 v 1 h 1 v -1 z m 11,1 v 1 h 1 v -1 z m 2,0 v 1 h 1 v -1 z m -15,1 v 1 h 1 v -1 z m 2,0 v 1 h 1 v -1 z m 11,1 v 1 h 1 v -1 z m 2,0 v 1 h 1 v -1 z m -15,1 v 1 h 1 v -1 z m 2,0 v 1 h 1 v -1 z m -2,2 v 1 h 1 v -1 z m 2,0 v 1 h 1 v -1 z m 3,0 v 1 h 1 v -1 z m 2,0 v 1 h 1 v -1 z m 2,0 v 1 h 1 v -1 z m 2,0 v 1 h 1 v -1 z m 2,0 v 1 h 1 v -1 z m 2,0 v 1 h 1 v -1 z m -15,2 v 1 h 1 v -1 z m 2,0 v 1 h 1 v -1 z m 3,0 v 1 h 1 v -1 z m 2,0 v 1 h 1 v -1 z m 2,0 v 1 h 1 v -1 z m 2,0 v 1 h 1 v -1 z m 2,0 v 1 h 1 v -1 z m 2,0 v 1 h 1 v -1 z"/>
 <path style="fill:#234fa7" d="M 4 4 L 4 5 L 5 5 L 5 4 L 4 4 z M 6 4 L 6 5 L 7 5 L 7 4 L 6 4 z M 8 4 L 8 5 L 9 5 L 9 4 L 8 4 z M 10 4 L 10 5 L 11 5 L 11 4 L 10 4 z M 12 4 L 12 5 L 13 5 L 13 4 L 12 4 z M 14 4 L 14 5 L 15 5 L 15 4 L 14 4 z M 17 4 L 17 5 L 18 5 L 18 4 L 17 4 z M 19 4 L 19 5 L 20 5 L 20 4 L 19 4 z M 4 6 L 4 7 L 5 7 L 5 6 L 4 6 z M 6 6 L 6 7 L 7 7 L 7 6 L 6 6 z M 8 6 L 8 7 L 9 7 L 9 6 L 8 6 z M 10 6 L 10 7 L 11 7 L 11 6 L 10 6 z M 12 6 L 12 7 L 13 7 L 13 6 L 12 6 z M 14 6 L 14 7 L 15 7 L 15 6 L 14 6 z M 17 6 L 17 7 L 18 7 L 18 6 L 17 6 z M 19 6 L 19 7 L 20 7 L 20 6 L 19 6 z M 17 8 L 17 9 L 18 9 L 18 8 L 17 8 z M 19 8 L 19 9 L 20 9 L 20 8 L 19 8 z M 4 9 L 4 10 L 5 10 L 5 9 L 4 9 z M 6 9 L 6 10 L 7 10 L 7 9 L 6 9 z M 17 10 L 17 11 L 18 11 L 18 10 L 17 10 z M 19 10 L 19 11 L 20 11 L 20 10 L 19 10 z M 4 11 L 4 12 L 5 12 L 5 11 L 4 11 z M 6 11 L 6 12 L 7 12 L 7 11 L 6 11 z M 17 12 L 17 13 L 18 13 L 18 12 L 17 12 z M 19 12 L 19 13 L 20 13 L 20 12 L 19 12 z M 4 13 L 4 14 L 5 14 L 5 13 L 4 13 z M 6 13 L 6 14 L 7 14 L 7 13 L 6 13 z M 17 14 L 17 15 L 18 15 L 18 14 L 17 14 z M 19 14 L 19 15 L 20 15 L 20 14 L 19 14 z M 4 15 L 4 16 L 5 16 L 5 15 L 4 15 z M 6 15 L 6 16 L 7 16 L 7 15 L 6 15 z M 4 17 L 4 18 L 5 18 L 5 17 L 4 17 z M 6 17 L 6 18 L 7 18 L 7 17 L 6 17 z M 9 17 L 9 18 L 10 18 L 10 17 L 9 17 z M 11 17 L 11 18 L 12 18 L 12 17 L 11 17 z M 13 17 L 13 18 L 14 18 L 14 17 L 13 17 z M 15 17 L 15 18 L 16 18 L 16 17 L 15 17 z M 17 17 L 17 18 L 18 18 L 18 17 L 17 17 z M 19 17 L 19 18 L 20 18 L 20 17 L 19 17 z M 4 19 L 4 20 L 5 20 L 5 19 L 4 19 z M 6 19 L 6 20 L 7 20 L 7 19 L 6 19 z M 9 19 L 9 20 L 10 20 L 10 19 L 9 19 z M 11 19 L 11 20 L 12 20 L 12 19 L 11 19 z M 13 19 L 13 20 L 14 20 L 14 19 L 13 19 z M 15 19 L 15 20 L 16 20 L 16 19 L 15 19 z M 17 19 L 17 20 L 18 20 L 18 19 L 17 19 z M 19 19 L 19 20 L 20 20 L 20 19 L 19 19 z"/>
</svg>
